static/assets/template/assets/img/icons/essential/detailed/Cup.svg

<svg height="145" viewBox="0 0 151 145" width="151" xmlns="http://www.w3.org/2000/svg"><g fill="none" fill-rule="evenodd" transform="translate(1 1)"><g stroke-linecap="round" stroke-linejoin="round" stroke-width="3" transform="translate(0 141)"><path d="m2.3.6h-1.4"/><path d="m42.9.6h-34.9"/><path d="m50.4.6h-1.3"/><path d="m141.4.6h-83.3"/><path d="m148.1.6h-2.2"/></g><g fill-rule="nonzero"><path d="m123.2 122c-28.7 0-36.6-22-36.6-40.9l-4.5-2.7-.1-3.4-2.9 1.7-2.9-1.7-.1 3.4-4.5 2.7c0 18.9-7.9 40.9-36.6 40.9-.1 0 0 19.5 0 19.5h40 8.2 40s.1-19.5 0-19.5z"/><path d="m123.2 141.5h-88.2s-.1-17.9 0-19.4c0-.1 0-.1 0-.1 17.4 0 27.1-8.1 32.1-18.6 3.3-6.9 4.5-14.8 4.5-22.3l4.5-2.7.1-3.4 2.9 1.7 2.9-1.7.1 3.4 4.5 2.7c0 7.4 1.2 15.3 4.4 22.1 5 10.6 14.7 18.8 32.2 18.8v.1c.1 1.5 0 19.4 0 19.4z" fill="#bad8ff"/><path d="m123.2 141.5h-88.2s-.1-17.9 0-19.4h88.2c.1 1.5 0 19.4 0 19.4z"/><path d="m91 103.2c-3.8 1.5-7.9 2.3-12.1 2.3-4.1 0-8.1-.7-11.7-2.1 3.3-6.9 4.5-14.8 4.5-22.3l4.5-2.7.1-3.4 2.9 1.7 2.9-1.7.1 3.4 4.5 2.7c-.1 7.4 1.1 15.3 4.3 22.1z" fill="#84bdfe"/><path d="m48.1 63.4c-7.7 0-14.3-2.7-19.6-8.1-15.6-15.8-14.1-42.4-14-43.8.1-2 1.7-3.6 3.7-3.6h28.1c2.1 0 3.7 1.7 3.7 3.7 0 2.1-1.7 3.7-3.7 3.7h-24.4c.1 8.7 1.3 23.9 11.9 34.7 4.1 4.1 9 6 15.1 5.8 2.1-.1 3.8 1.6 3.9 3.6.1 2.1-1.6 3.8-3.6 3.9-.4.1-.8.1-1.1.1z"/><path d="m107.5 63.4c-.4 0-.7 0-1.1 0-2.1-.1-3.7-1.8-3.6-3.9s1.8-3.7 3.9-3.6c6.1.2 11-1.7 15.1-5.8 10.6-10.8 11.9-26 11.9-34.7h-24.4c-2.1 0-3.7-1.7-3.7-3.7 0-2.1 1.7-3.7 3.7-3.7h28.1c2 0 3.6 1.6 3.7 3.6.1 1.4 1.5 28-14 43.8-5.3 5.2-11.9 8-19.6 8z"/><path d="m48.1 63.4c-7.7 0-14.3-2.7-19.6-8.1-15.6-15.8-14.1-42.4-14-43.8.1-2 1.7-3.6 3.7-3.6h28.1c2.1 0 3.7 1.7 3.7 3.7 0 2.1-1.7 3.7-3.7 3.7h-24.4c.1 8.7 1.3 23.9 11.9 34.7 4.1 4.1 9 6 15.1 5.8 2.1-.1 3.8 1.6 3.9 3.6.1 2.1-1.6 3.8-3.6 3.9-.4.1-.8.1-1.1.1z" fill="#bad8ff"/><path d="m107.5 63.4c-.4 0-.7 0-1.1 0-2.1-.1-3.7-1.8-3.6-3.9s1.8-3.7 3.9-3.6c6.1.2 11-1.7 15.1-5.8 10.6-10.8 11.9-26 11.9-34.7h-24.4c-2.1 0-3.7-1.7-3.7-3.7 0-2.1 1.7-3.7 3.7-3.7h28.1c2 0 3.6 1.6 3.7 3.6.1 1.4 1.5 28-14 43.8-5.3 5.2-11.9 8-19.6 8z" fill="#bad8ff"/></g><path d="m18.3 38.2c-4.6-13-3.9-25.8-3.8-26.8.1-2 1.7-3.6 3.7-3.6h12.3" stroke-linecap="round" stroke-linejoin="round" stroke-width="3"/><path d="m30.9 57.4c-.8-.7-1.6-1.4-2.4-2.2-3-3-5.3-6.5-7.2-10" stroke-linecap="round" stroke-linejoin="round" stroke-width="3"/><path d="m41.1 7.9h5.2c2.1 0 3.7 1.7 3.7 3.7 0 2.1-1.7 3.7-3.7 3.7h-24.4c.1 8.7 1.3 23.9 11.9 34.7 4.1 4.1 9 6 15.1 5.8 2.1-.1 3.8 1.6 3.9 3.6.1 2.1-1.6 3.8-3.6 3.9-.4 0-.7 0-1.1 0-4.2 0-8-.8-11.4-2.3" stroke-linecap="round" stroke-linejoin="round" stroke-width="3"/><path d="m116.2 15.3h-6.9c-2.1 0-3.7-1.7-3.7-3.7 0-2.1 1.7-3.7 3.7-3.7h28.1c2 0 3.6 1.6 3.7 3.6.1 1.4 1.5 28-14 43.8-5.3 5.4-11.9 8.1-19.6 8.1-.4 0-.7 0-1.1 0-2.1-.1-3.7-1.8-3.6-3.9s1.8-3.7 3.9-3.6c6.1.2 11-1.7 15.1-5.8 10.6-10.8 11.9-26 11.9-34.7h-8.3" stroke-linecap="round" stroke-linejoin="round" stroke-width="3"/><path d="m50 119.5c-4.2 1.6-9.2 2.5-14.9 2.5-.1 0 0 19.5 0 19.5h40 8.2 40s.1-19.5 0-19.5c-28.7 0-36.6-22-36.6-40.9l-4.5-2.7-.1-3.4-2.9 1.7-2.9-1.7-.1 3.4-4.5 2.7c0 8.6-1.7 17.9-6.2 25.4" stroke-linecap="round" stroke-linejoin="round" stroke-width="3"/><path d="m58.2 131.1h41.5" stroke-linecap="round" stroke-linejoin="round" stroke-width="3"/><path d="m116.2 1.9v54.2c0 20.1-15.7 36.4-35.5 37.5-.6 0-1.3 0-1.9 0-20.7 0-37.5-16.8-37.5-37.5v-54.2z"/><path d="m116.2 1.9v54.2c0 20.1-15.7 36.4-35.5 37.5-.6 0-1.3 0-1.9 0-20.7 0-37.5-16.8-37.5-37.5v-54.2z" fill-rule="nonzero"/><path d="m116.2 6.7v49.5c0 20.1-15.7 36.4-35.5 37.5-.4 0-.8 0-1.1-.1-1.3-.1-2.6-.3-3.8-.5-.6-.1-1.1-.2-1.6-.4-.3-.1-.6-.2-.9-.2-.3-.1-.6-.2-.9-.3s-.6-.2-.9-.3c-.1 0-.2-.1-.4-.1-.3-.1-.6-.2-.8-.3-.3-.1-.6-.2-.9-.4-.5-.2-1-.4-1.4-.7-.3-.1-.6-.3-.9-.5-.2-.1-.3-.2-.5-.3-.3-.2-.6-.4-.9-.5-.4-.2-.7-.4-1.1-.7-.3-.2-.6-.4-.9-.6-.2-.1-.3-.2-.5-.3-.3-.2-.7-.5-1-.7-.1 0-.1-.1-.2-.1-.4-.3-.7-.6-1-.9-.1-.1-.3-.2-.4-.4-.2-.2-.5-.4-.7-.7-.2-.1-.3-.3-.4-.4-.2-.2-.5-.4-.7-.7-.1-.1-.3-.3-.4-.4-5.7-6.1-9.2-14.2-9.2-23.1v-53.2h67z" fill-rule="nonzero"/><path d="m82.5 93.7h.9c-.1 0-.2 0-.3 0-.2 0-.4 0-.6 0z" fill="#bad8ff" fill-rule="nonzero"/><path d="m116.2 6.7v49.5c0 20.1-15.7 36.4-35.5 37.5-.4 0-.8 0-1.1-.1-1.3-.1-2.6-.3-3.8-.5-.6-.1-1.1-.2-1.6-.4-.3-.1-.6-.2-.9-.2-.3-.1-.6-.2-.9-.3s-.6-.2-.9-.3c-.1 0-.3-.1-.4-.1-.3-.1-.6-.2-.8-.3-.3-.1-.6-.2-.9-.4-.5-.2-1-.4-1.4-.7-.3-.1-.6-.3-.9-.5-.2-.1-.3-.2-.5-.3-.3-.2-.6-.4-.9-.5-.4-.2-.7-.4-1.1-.7-.3-.2-.6-.4-.9-.6-.2-.1-.3-.2-.5-.3-.3-.2-.7-.5-1-.7-.1 0-.1-.1-.2-.1-.4-.3-.7-.6-1-.9-.1-.1-.3-.2-.4-.4-.2-.2-.5-.4-.7-.7-.2-.1-.3-.3-.4-.4-.2-.2-.5-.4-.7-.7l-.2-.2c-.1-.1-.1-.1-.2-.2-3.6-4 .1-10.3 5.4-9.1 2.2.5 4.5.7 6.9.8 18.8.2 34.2-15.7 34.2-34.5v-21.7c-.6-6.7 4.7-12 11.3-12z" fill="#bad8ff" fill-rule="nonzero"/><path d="m68.4.8h47.8v54.2c0 20.7-16.8 37.5-37.5 37.5s-37.5-16.8-37.5-37.5v-54.2h5.2" stroke-linecap="round" stroke-linejoin="round" stroke-width="3"/><path d="m56.9.8h1.4" stroke-linecap="round" stroke-linejoin="round" stroke-width="3"/></g></svg>

<?xml version="1.0" encoding="UTF-8"?>
<svg width="151px" height="145px" viewBox="0 0 151 145" version="1.1" xmlns="http://www.w3.org/2000/svg" xmlns:xlink="http://www.w3.org/1999/xlink">
    <!-- Generator: Sketch 51.2 (57519) - http://www.bohemiancoding.com/sketch -->
    <title>Cup</title>
    <desc>Created with Sketch.</desc>
    <defs></defs>
    <g id="Page-1" stroke="none" stroke-width="1" fill="none" fill-rule="evenodd">
        <g id="Cup" transform="translate(1.000000, 1.000000)">
            <g id="Group" transform="translate(0.000000, 141.000000)" class="stroke-primary-300" stroke-linecap="round" stroke-linejoin="round" stroke-width="3">
                <path d="M2.3,0.6 L0.9,0.6" id="Shape"></path>
                <path d="M42.9,0.6 L8,0.6" id="Shape"></path>
                <path d="M50.4,0.6 L49.1,0.6" id="Shape"></path>
                <path d="M141.4,0.6 L58.1,0.6" id="Shape"></path>
                <path d="M148.1,0.6 L145.9,0.6" id="Shape"></path>
            </g>
            <path d="M123.2,122 C94.5,122 86.6,100 86.6,81.1 L82.1,78.4 L82,75 L79.1,76.7 L76.2,75 L76.1,78.4 L71.6,81.1 C71.6,100 63.7,122 35,122 C34.9,122 35,141.5 35,141.5 L75,141.5 L83.2,141.5 L123.2,141.5 C123.2,141.5 123.3,122 123.2,122 Z" id="Shape" class="fill-neutral" fill-rule="nonzero"></path>
            <path d="M123.2,141.5 L35,141.5 C35,141.5 34.9,123.6 35,122.1 C35,122 35,122 35,122 C52.4,122 62.1,113.9 67.1,103.4 C70.4,96.5 71.6,88.6 71.6,81.1 L76.1,78.4 L76.2,75 L79.1,76.7 L82,75 L82.1,78.4 L86.6,81.1 C86.6,88.5 87.8,96.4 91,103.2 C96,113.8 105.7,122 123.2,122 C123.2,122 123.2,122 123.2,122.1 C123.3,123.6 123.2,141.5 123.2,141.5 Z" id="Shape" fill="#BAD8FF" fill-rule="nonzero"></path>
            <path d="M123.2,141.5 L35,141.5 C35,141.5 34.9,123.6 35,122.1 L123.2,122.1 C123.3,123.6 123.2,141.5 123.2,141.5 Z" id="Shape" class="fill-primary-100" fill-rule="nonzero"></path>
            <path d="M91,103.2 C87.2,104.7 83.1,105.5 78.9,105.5 C74.8,105.5 70.8,104.8 67.2,103.4 C70.5,96.5 71.7,88.6 71.7,81.1 L76.2,78.4 L76.3,75 L79.2,76.7 L82.1,75 L82.2,78.4 L86.7,81.1 C86.6,88.5 87.8,96.4 91,103.2 Z" id="Shape" fill="#84BDFE" fill-rule="nonzero"></path>
            <path d="M48.1,63.4 C40.4,63.4 33.8,60.7 28.5,55.3 C12.9,39.5 14.4,12.9 14.5,11.5 C14.6,9.5 16.2,7.9 18.2,7.9 L46.3,7.9 C48.4,7.9 50,9.6 50,11.6 C50,13.7 48.3,15.3 46.3,15.3 L21.9,15.3 C22,24 23.2,39.2 33.8,50 C37.9,54.1 42.8,56 48.9,55.8 C51,55.7 52.7,57.4 52.8,59.4 C52.9,61.5 51.2,63.2 49.2,63.3 C48.8,63.4 48.4,63.4 48.1,63.4 Z" id="Shape" class="fill-neutral" fill-rule="nonzero"></path>
            <path d="M107.5,63.4 C107.1,63.4 106.8,63.4 106.4,63.4 C104.3,63.3 102.7,61.6 102.8,59.5 C102.9,57.4 104.6,55.8 106.7,55.9 C112.8,56.1 117.7,54.2 121.8,50.1 C132.4,39.3 133.7,24.1 133.7,15.4 L109.3,15.4 C107.2,15.4 105.6,13.7 105.6,11.7 C105.6,9.6 107.3,8 109.3,8 L137.4,8 C139.4,8 141,9.6 141.1,11.6 C141.2,13 142.6,39.6 127.1,55.4 C121.8,60.6 115.2,63.4 107.5,63.4 Z" id="Shape" class="fill-neutral" fill-rule="nonzero"></path>
            <path d="M48.1,63.4 C40.4,63.4 33.8,60.7 28.5,55.3 C12.9,39.5 14.4,12.9 14.5,11.5 C14.6,9.5 16.2,7.9 18.2,7.9 L46.3,7.9 C48.4,7.9 50,9.6 50,11.6 C50,13.7 48.3,15.3 46.3,15.3 L21.9,15.3 C22,24 23.2,39.2 33.8,50 C37.9,54.1 42.8,56 48.9,55.8 C51,55.7 52.7,57.4 52.8,59.4 C52.9,61.5 51.2,63.2 49.2,63.3 C48.8,63.4 48.4,63.4 48.1,63.4 Z" id="Shape" fill="#BAD8FF" fill-rule="nonzero"></path>
            <path d="M107.5,63.4 C107.1,63.4 106.8,63.4 106.4,63.4 C104.3,63.3 102.7,61.6 102.8,59.5 C102.9,57.4 104.6,55.8 106.7,55.9 C112.8,56.1 117.7,54.2 121.8,50.1 C132.4,39.3 133.7,24.1 133.7,15.4 L109.3,15.4 C107.2,15.4 105.6,13.7 105.6,11.7 C105.6,9.6 107.3,8 109.3,8 L137.4,8 C139.4,8 141,9.6 141.1,11.6 C141.2,13 142.6,39.6 127.1,55.4 C121.8,60.6 115.2,63.4 107.5,63.4 Z" id="Shape" fill="#BAD8FF" fill-rule="nonzero"></path>
            <path d="M18.3,38.2 C13.7,25.2 14.4,12.4 14.5,11.4 C14.6,9.4 16.2,7.8 18.2,7.8 L30.5,7.8" id="Shape" class="stroke-primary" stroke-width="3" stroke-linecap="round" stroke-linejoin="round"></path>
            <path d="M30.9,57.4 C30.1,56.7 29.3,56 28.5,55.2 C25.5,52.2 23.2,48.7 21.3,45.2" id="Shape" class="stroke-primary" stroke-width="3" stroke-linecap="round" stroke-linejoin="round"></path>
            <path d="M41.1,7.9 L46.3,7.9 C48.4,7.9 50,9.6 50,11.6 C50,13.7 48.3,15.3 46.3,15.3 L21.9,15.3 C22,24 23.2,39.2 33.8,50 C37.9,54.1 42.8,56 48.9,55.8 C51,55.7 52.7,57.4 52.8,59.4 C52.9,61.5 51.2,63.2 49.2,63.3 C48.8,63.3 48.5,63.3 48.1,63.3 C43.9,63.3 40.1,62.5 36.7,61" id="Shape" class="stroke-primary" stroke-width="3" stroke-linecap="round" stroke-linejoin="round"></path>
            <path d="M116.2,15.3 L109.3,15.3 C107.2,15.3 105.6,13.6 105.6,11.6 C105.6,9.5 107.3,7.9 109.3,7.9 L137.4,7.9 C139.4,7.9 141,9.5 141.1,11.5 C141.2,12.9 142.6,39.5 127.1,55.3 C121.8,60.7 115.2,63.4 107.5,63.4 C107.1,63.4 106.8,63.4 106.4,63.4 C104.3,63.3 102.7,61.6 102.8,59.5 C102.9,57.4 104.6,55.8 106.7,55.9 C112.8,56.1 117.7,54.2 121.8,50.1 C132.4,39.3 133.7,24.1 133.7,15.4 L125.4,15.4" id="Shape" class="stroke-primary" stroke-width="3" stroke-linecap="round" stroke-linejoin="round"></path>
            <path d="M50,119.5 C45.8,121.1 40.8,122 35.1,122 C35,122 35.1,141.5 35.1,141.5 L75.1,141.5 L83.3,141.5 L123.3,141.5 C123.3,141.5 123.4,122 123.3,122 C94.6,122 86.7,100 86.7,81.1 L82.2,78.4 L82.1,75 L79.2,76.7 L76.3,75 L76.2,78.4 L71.7,81.1 C71.7,89.7 70,99 65.5,106.5" id="Shape" class="stroke-primary" stroke-width="3" stroke-linecap="round" stroke-linejoin="round"></path>
            <path d="M58.2,131.1 L99.7,131.1" id="Shape" class="stroke-primary" stroke-width="3" stroke-linecap="round" stroke-linejoin="round"></path>
            <path d="M116.2,1.9 L116.2,56.1 C116.2,76.2 100.5,92.5 80.7,93.6 C80.7,93.6 80.7,93.6 80.7,93.6 C80.1,93.6 79.4,93.6 78.8,93.6 C58.1,93.6 41.3,76.8 41.3,56.1 L41.3,1.9 L116.2,1.9 Z" id="Shape"></path>
            <path d="M116.2,1.9 L116.2,56.1 C116.2,76.2 100.5,92.5 80.7,93.6 C80.7,93.6 80.7,93.6 80.7,93.6 C80.1,93.6 79.4,93.6 78.8,93.6 C58.1,93.6 41.3,76.8 41.3,56.1 L41.3,1.9 L116.2,1.9 Z" id="Shape" class="fill-neutral" fill-rule="nonzero"></path>
            <path d="M116.2,6.7 L116.2,56.2 C116.2,76.3 100.5,92.6 80.7,93.7 C80.3,93.7 79.9,93.7 79.6,93.6 C78.3,93.5 77,93.3 75.8,93.1 C75.2,93 74.7,92.9 74.2,92.7 C73.9,92.6 73.6,92.5 73.3,92.5 C73,92.4 72.7,92.3 72.4,92.2 C72.1,92.1 71.8,92 71.5,91.9 C71.4,91.9 71.3,91.8 71.1,91.8 C70.8,91.7 70.5,91.6 70.3,91.5 C70,91.4 69.7,91.3 69.4,91.1 C68.9,90.9 68.4,90.7 68,90.4 C67.7,90.3 67.4,90.1 67.1,89.9 C66.9,89.8 66.8,89.7 66.6,89.6 C66.3,89.4 66,89.2 65.7,89.1 C65.3,88.9 65,88.7 64.6,88.4 C64.3,88.2 64,88 63.7,87.8 C63.5,87.7 63.4,87.6 63.2,87.5 C62.9,87.3 62.5,87 62.2,86.8 C62.1,86.8 62.1,86.7 62,86.7 C61.6,86.4 61.3,86.1 61,85.8 C60.9,85.7 60.7,85.6 60.6,85.4 C60.4,85.2 60.1,85 59.9,84.7 C59.7,84.6 59.6,84.4 59.5,84.3 C59.3,84.1 59,83.9 58.8,83.6 C58.7,83.5 58.5,83.3 58.4,83.2 C52.7,77.1 49.2,69 49.2,60.1 L49.2,6.9 L116.2,6.9 L116.2,6.7 Z" id="Shape" class="fill-primary-100" fill-rule="nonzero"></path>
            <path d="M82.5,93.7 C82.8,93.7 83.1,93.7 83.4,93.7 C83.3,93.7 83.2,93.7 83.1,93.7 C82.9,93.7 82.7,93.7 82.5,93.7 Z" id="Shape" fill="#BAD8FF" fill-rule="nonzero"></path>
            <path d="M116.2,6.7 L116.2,56.2 C116.2,76.3 100.5,92.6 80.7,93.7 C80.7,93.7 80.7,93.7 80.7,93.7 C80.3,93.7 79.9,93.7 79.6,93.6 C78.3,93.5 77,93.3 75.8,93.1 C75.2,93 74.7,92.9 74.2,92.7 C73.9,92.6 73.6,92.5 73.3,92.5 C73,92.4 72.7,92.3 72.4,92.2 C72.1,92.1 71.8,92 71.5,91.9 C71.4,91.9 71.2,91.8 71.1,91.8 C70.8,91.7 70.5,91.6 70.3,91.5 C70,91.4 69.7,91.3 69.4,91.1 C68.9,90.9 68.4,90.7 68,90.4 C67.7,90.3 67.4,90.1 67.1,89.9 C66.9,89.8 66.8,89.7 66.6,89.6 C66.3,89.4 66,89.2 65.7,89.1 C65.3,88.9 65,88.7 64.6,88.4 C64.3,88.2 64,88 63.7,87.8 C63.5,87.7 63.4,87.6 63.2,87.5 C62.9,87.3 62.5,87 62.2,86.8 C62.1,86.8 62.1,86.7 62,86.7 C61.6,86.4 61.3,86.1 61,85.8 C60.9,85.7 60.7,85.6 60.6,85.4 C60.4,85.2 60.1,85 59.9,84.7 C59.7,84.6 59.6,84.4 59.5,84.3 C59.3,84.1 59,83.9 58.8,83.6 L58.6,83.4 C58.5,83.3 58.5,83.3 58.4,83.2 C54.8,79.2 58.5,72.9 63.8,74.1 C66,74.6 68.3,74.8 70.7,74.9 C89.5,75.1 104.9,59.2 104.9,40.4 L104.9,18.7 C104.3,12 109.6,6.7 116.2,6.7 Z" id="Shape" fill="#BAD8FF" fill-rule="nonzero"></path>
            <path d="M68.4,0.8 L116.2,0.8 L116.2,55 C116.2,75.7 99.4,92.5 78.7,92.5 C58,92.5 41.2,75.7 41.2,55 L41.2,0.8 L46.4,0.8" id="Shape" class="stroke-primary" stroke-width="3" stroke-linecap="round" stroke-linejoin="round"></path>
            <path d="M56.9,0.8 L58.3,0.8" id="Shape" class="stroke-primary" stroke-width="3" stroke-linecap="round" stroke-linejoin="round"></path>
        </g>
    </g>
</svg>
